X:3700
T:Little Burnt Potato, The
O:england
R:Jig
C:Collin Boyd
M:6/8
L:1/8
K:D
(3(f/g/^g/)|:"D"a^ga ba^g|afd A2d/e/|fdf g2f|"Em"e3 B2c/d/|
"A7"e2f e2d|cAc a2a|1 a^ga ba=g|"D"f3 -f2 (3(f/g/^g/):|2 a^ga bac|"D"d3
a2g||
|:"D"f2A f2A|f3 f2e|def agf|"Em"g3 g2e/f/|
"A7"gba gfe|dcB A3|1 a^ga bag|"D"f3 a2g:|2 a^ga bac|"D"d3 -d2|


